X:1
T:Alicante, 12.12.12.12 D
T:Alicante, 12.12.12.12 D
T:Hart Pease Danks, 1881
T:Public Domain Courtesy of the Cyber Hymnal™
C:Hart Pease Danks, 1881
Z:Public Domain
Z:Courtesy of the Cyber Hymnal™
%%score ( 1 2 ) ( 3 4 )
L:1/8
Q:1/4=90
M:4/4
K:Bb
V:1 treble 
V:2 treble 
V:3 bass 
V:4 bass 
V:1
 [B,D][CE] | [DF]2 [^C=E][DF] [Dd]2 [D=c][DB] | [EB]2 [EA][EG] [DF]2 [^C=E][DF] | %3
 [EG]2 [FA][GB] [DF]2 [FB][Fc] | [Fd]2 [Fe][Fd] [Fc]2 [EF][EF] | [DF]2 [FB][Fc] [Fd]2 [Fc][FB] | %6
 [GB]2 [FA][EG] [DF]2 [DF][DF] | [EG]2 [^CG][CG] [DF]2 [FB][FB] | %8
 [FA]2 [Ec][Ec] !fermata![DB]2 FF | [Fc]2 [Fc][Fc] [Gc]2 [Gd][Gc] | (cf)[F=e][Fd] [Fc]2 [FB][FA] | %11
 [=EG]2 [EG][FA] [GB]2 [FA][EG] | F2 [=EG][CE] !fermata![CF]2 [_EF][EF] | %13
 [DF]2 [FB][Fc] [Fd]2 [Fc][FB] | [GB]2 [FA][EG] [DF]2 [DF][DF] | [EG]2 [^CG][CG] [DF]2 [FB][FB] | %16
 [FA]2 [Ec][Ec] !fermata![DB]2 |] %17
V:2
 x2 | x8 | x8 | x8 | x8 | x8 | x8 | x8 | x6 FF | x8 | F2 x6 | x8 | F2 x6 | x8 | x8 | x8 | x6 |] %17
V:3
 [B,,F,][B,,F,] | [B,,F,]2 [B,,G,][B,,F,] [B,,F,]2 [B,,F,][B,,F,] | %2
 [B,,G,]2 [B,,A,][B,,B,] [B,,B,]2 [B,,B,][B,,B,] | [E,B,]2 [E,B,][E,B,] [B,,B,]2 [D,B,][F,A,] | %4
 B,2 [A,C]B, [F,A,]2 [F,A,][F,A,] | [B,,B,]2 [D,B,][F,A,] B,2 [C,A,][D,B,] | %6
 [E,B,]2 [E,B,][E,B,] [B,,B,]2 [B,,B,][B,,B,] | [E,B,]2 [=E,B,][E,B,] [F,B,]2 [F,D][F,D] | %8
 [F,C]2 [F,A,][F,A,] !fermata![B,,B,]2 F,F, | [F,A,]2 [F,A,][F,A,] [=E,B,]2 [E,B,][E,B,] | %10
 (A,D)[F,C][F,B,] [F,A,]2 [F,D][F,C] | [C,C]2 [C,C][C,C] [C,C]2 [C,C][C,B,] | %12
 [C,A,]2 [C,B,][C,B,] !fermata![F,A,]2 [F,A,][F,A,] | [B,,B,]2 [D,B,][F,A,] B,2 [C,A,][D,B,] | %14
 [E,B,]2 [E,B,][E,B,] [B,,B,]2 [B,,B,][B,,B,] | [E,B,]2 [=E,B,][E,B,] [F,B,]2 [F,D][F,D] | %16
 [F,C]2 [F,A,][F,A,] !fermata![B,,B,]2 |] %17
V:4
 x2 | x8 | x8 | x8 | B,2 B, x5 | x4 (B,B,,) x2 | x8 | x8 | x6 F,F, | x8 | F,2 x6 | x8 | x8 | %13
 x4 (B,B,,) x2 | x8 | x8 | x6 |] %17

